X:1
T:Hammersmith (Filby), SM
T:William Charles Filby, 1889
T:Hammersmith (Filby), SM
T:Public Domain
C:William Charles Filby, 1889
Z:Public Domain
%%score ( 1 2 ) ( 3 4 )
L:1/8
M:4/4
K:D
V:1 treble 
V:2 treble 
V:3 bass 
V:4 bass 
V:1
 [FA]2 | [Fd]2 [DA]2 [DG]3 [DF] | [DF]6 [DF]2 | [EA]2 [DF]2 [CE]3 D | D6 [DF]2 | %5
 [EG]2 [EF]2 [DB]2 [Fc]2 | [Ge]2 [Fd]2 [^Ec]2 [EB]2 | [FA]2 D2 D2 z F x | [DF]6 |] %9
V:2
 x2 | x8 | x8 | x7 D | D6 x2 | x8 | x8 | x2 D2 G3 C2 | x6 |] %9
V:3
 [D,A,]2 | [D,A,]2 [D,F,]2 [D,B,]3 [D,A,] | [D,A,]6 [D,A,]2 | [C,A,]2 [D,A,]2 [A,,G,]3 [B,,F,] | %4
 [B,,F,]6 B,2 | [^A,C]2 [A,C]2 B,2 [F,A,]2 | [E,B,]2 B,2 [^G,D]2 [G,D]2 | %7
 [A,D]2 [F,A,]2 [E,B,]2 [A,,A,]2 x | [D,A,]6 |] %9
V:4
 x2 | x8 | x8 | x8 | x6 B,2 | x4 B,2 x2 | x2 B,2 x4 | x9 | x6 |] %9

